X: 1
T: Sheep Shanks
R: reel
B: Kerr's 3rd p.12 #98
Z: John Chambers <jc:trillian.mit.edu>
M: C|
L: 1/8
K: A
|: e \
| "A"{g}a2ed cAec | "Bm"Bcde "E7"fBbg | "A"a2ed cAec | "D"df"E"ec "A"A2A :|
|: e \
| "A"cAEA cAec | "Bm"Bcde fBfd |[1 "A"cAEA cAec | "D"df"E"ec "A"A2A :|[2 "A"ceae "D"dfba | "E7"gefg "A"aAA |]
